X:1
T:Old Pike
M:2/4
L:1/16
K:C
 E| G2 G c2 cc c| d2G2 _B3 B| G2 GG c2 cc| A G6| E| GG G2c2 c2| dG G2 _B3 B|\
 AA AA GG GE| D C3- C4| C C2 C F4| G G2 G _B3 B| A2 AA G2 GE| D C3- C4|\
 C C2 C F4| G G2 G _B3 B| A2 AA G2 GE| DD ED C3||
